X: 43640
T: Zelda
R: jig
M: 6/8
K: Aminor
|:e2A e2A|fed e3|edc B2B|Bcd c2A|
e2A e2A|fed e3|edc B2B|BcB A3:|
|:ABc E2E|ABc F2F|ABc B2B|dcB c2A|
ABc E2E|ABc F2F|ABc B2B|dcB A3:|
|:ABA e2e|ABA f2f|ABc d2d|dcB c2A|
ABA e2e|ABA f2f|ABc d2d|dcB A3:|

